Numix/16/status/indicator-keyboard-Hy-4.svg

<?xml version="1.0" encoding="UTF-8" standalone="no"?>
<svg
   xmlns:dc="http://purl.org/dc/elements/1.1/"
   xmlns:cc="http://creativecommons.org/ns#"
   xmlns:rdf="http://www.w3.org/1999/02/22-rdf-syntax-ns#"
   xmlns:svg="http://www.w3.org/2000/svg"
   xmlns="http://www.w3.org/2000/svg"
   xmlns:sodipodi="http://sodipodi.sourceforge.net/DTD/sodipodi-0.dtd"
   xmlns:inkscape="http://www.inkscape.org/namespaces/inkscape"
   viewBox="0 0 16 16"
   id="svg2"
   version="1.1"
   inkscape:version="0.91 r13725"
   sodipodi:docname="indicator-keyboard-Hy-4.svg">
  <metadata
     id="metadata14">
    <rdf:RDF>
      <cc:Work
         rdf:about="">
        <dc:format>image/svg+xml</dc:format>
        <dc:type
           rdf:resource="http://purl.org/dc/dcmitype/StillImage" />
      </cc:Work>
    </rdf:RDF>
  </metadata>
  <defs
     id="defs12" />
  <sodipodi:namedview
     pagecolor="#ffffff"
     bordercolor="#666666"
     borderopacity="1"
     objecttolerance="10"
     gridtolerance="10"
     guidetolerance="10"
     inkscape:pageopacity="0"
     inkscape:pageshadow="2"
     inkscape:window-width="640"
     inkscape:window-height="480"
     id="namedview10"
     showgrid="false"
     inkscape:zoom="14.75"
     inkscape:cx="8"
     inkscape:cy="8"
     inkscape:window-x="65"
     inkscape:window-y="24"
     inkscape:window-maximized="0"
     inkscape:current-layer="svg2" />
  <path
     style="fill:#ececec;fill-opacity:1"
     d="M 1.5996094 0 C 0.71320937 2.9605947e-16 0 0.71320937 0 1.5996094 L 0 14.400391 C 2.9605947e-16 15.286791 0.71320937 16 1.5996094 16 L 14.400391 16 C 15.286791 16 16 15.286791 16 14.400391 L 16 1.5996094 C 16 0.71320937 15.286791 0 14.400391 0 L 1.5996094 0 z M 1.6542969 4.859375 L 2.265625 4.859375 L 2.265625 7.5683594 L 5.6503906 7.5683594 L 5.6503906 4.859375 L 6.2617188 4.859375 L 6.2617188 11.095703 L 5.6503906 11.095703 L 5.6503906 8.0996094 L 2.265625 8.0996094 L 2.265625 11.095703 L 1.6542969 11.095703 L 1.6542969 4.859375 z M 7.2480469 6.4433594 L 7.8671875 6.4433594 C 7.9331875 6.7313594 8.0190938 7.0429063 8.1210938 7.3789062 C 8.2230937 7.7089062 8.3368906 8.0502969 8.4628906 8.4042969 C 8.5948906 8.7582969 8.7385313 9.1221406 8.8945312 9.4941406 C 9.0505312 9.8661408 9.2184375 10.231797 9.3984375 10.591797 C 9.5304375 10.219797 9.648 9.8690627 9.75 9.5390625 C 9.852 9.2090625 9.9433437 8.8825937 10.027344 8.5585938 C 10.117344 8.2285938 10.201297 7.8927812 10.279297 7.5507812 C 10.363297 7.2087813 10.451016 6.8393594 10.541016 6.4433594 L 11.126953 6.4433594 C 10.934953 7.3133594 10.71475 8.1584688 10.46875 8.9804688 C 10.22275 9.802469 9.9559688 10.556234 9.6679688 11.240234 C 9.5539688 11.510234 9.4364063 11.741594 9.3164062 11.933594 C 9.1964063 12.131594 9.0621094 12.293922 8.9121094 12.419922 C 8.7681094 12.545922 8.5964375 12.637266 8.3984375 12.697266 C 8.2064375 12.757266 7.9788438 12.787109 7.7148438 12.787109 C 7.5648437 12.787109 7.4267813 12.770375 7.3007812 12.734375 C 7.1807813 12.698375 7.1061719 12.670344 7.0761719 12.652344 L 7.1933594 12.167969 C 7.2173594 12.185969 7.282625 12.208281 7.390625 12.238281 C 7.504625 12.274281 7.6221875 12.292969 7.7421875 12.292969 C 7.9101875 12.292969 8.0594062 12.274281 8.1914062 12.238281 C 8.3294063 12.202281 8.4525469 12.140781 8.5605469 12.050781 C 8.6685469 11.966781 8.7656094 11.854797 8.8496094 11.716797 C 8.9396094 11.578797 9.025375 11.405312 9.109375 11.195312 C 8.911375 10.829313 8.7192031 10.448734 8.5332031 10.052734 C 8.3532031 9.6567342 8.1834844 9.2574687 8.0214844 8.8554688 C 7.8654844 8.4474688 7.7218437 8.042625 7.5898438 7.640625 C 7.4578438 7.232625 7.3440469 6.8333594 7.2480469 6.4433594 z M 13.445312 8.8417969 L 13.841797 8.8417969 L 13.841797 11.486328 L 14.345703 11.486328 L 14.345703 11.796875 L 13.841797 11.796875 L 13.841797 12.896484 L 13.46875 12.896484 L 13.46875 11.796875 L 11.630859 11.796875 L 11.630859 11.5625 C 11.701059 11.3753 11.799028 11.163687 11.923828 10.929688 C 12.052528 10.695688 12.197522 10.456637 12.357422 10.210938 C 12.517322 9.9652374 12.689753 9.7261874 12.876953 9.4921875 C 13.064153 9.2542875 13.254213 9.0367969 13.445312 8.8417969 z M 13.46875 9.2695312 C 13.33225 9.4099312 13.193134 9.5706063 13.052734 9.7539062 C 12.912334 9.9372063 12.777137 10.129225 12.648438 10.328125 C 12.523637 10.523125 12.408028 10.719069 12.298828 10.917969 C 12.189628 11.116869 12.097538 11.306928 12.023438 11.486328 L 13.46875 11.486328 L 13.46875 9.2695312 z "
     id="path4" />
</svg>

<svg xmlns="http://www.w3.org/2000/svg" viewBox="0 0 16 16">
 <path d="m 1.6 0 c -0.886 0 -1.6 0.713 -1.6 1.6 l 0 12.801 c 0 0.886 0.713 1.6 1.6 1.6 l 12.801 0 c 0.886 0 1.6 -0.713 1.6 -1.6 l 0 -12.801 c 0 -0.886 -0.713 -1.6 -1.6 -1.6 l -12.801 0 z m 0.055 4.859 l 0.611 0 l 0 2.709 l 3.385 0 l 0 -2.709 l 0.611 0 l 0 6.236 l -0.611 0 l 0 -2.996 l -3.385 0 l 0 2.996 l -0.611 0 l 0 -6.236 z m 5.594 1.584 l 0.619 0 c 0.066 0.288 0.152 0.6 0.254 0.936 c 0.102 0.33 0.216 0.671 0.342 1.025 c 0.132 0.354 0.276 0.718 0.432 1.09 c 0.156 0.372 0.324 0.738 0.504 1.098 c 0.132 -0.372 0.25 -0.723 0.352 -1.053 c 0.102 -0.33 0.193 -0.656 0.277 -0.98 c 0.09 -0.33 0.174 -0.666 0.252 -1.01 c 0.084 -0.342 0.172 -0.711 0.262 -1.107 l 0.586 0 c -0.192 0.87 -0.412 1.715 -0.658 2.537 c -0.246 0.822 -0.513 1.576 -0.801 2.26 c -0.114 0.27 -0.232 0.501 -0.352 0.693 c -0.12 0.198 -0.254 0.36 -0.404 0.486 c -0.144 0.126 -0.316 0.217 -0.514 0.277 c -0.192 0.06 -0.42 0.09 -0.684 0.09 c -0.15 0 -0.288 -0.017 -0.414 -0.053 c -0.12 -0.036 -0.195 -0.064 -0.225 -0.082 l 0.117 -0.484 c 0.024 0.018 0.089 0.04 0.197 0.07 c 0.114 0.036 0.232 0.055 0.352 0.055 c 0.168 0 0.317 -0.019 0.449 -0.055 c 0.138 -0.036 0.261 -0.098 0.369 -0.188 c 0.108 -0.084 0.205 -0.196 0.289 -0.334 c 0.09 -0.138 0.176 -0.311 0.26 -0.521 c -0.198 -0.366 -0.39 -0.747 -0.576 -1.143 c -0.18 -0.396 -0.35 -0.795 -0.512 -1.197 c -0.156 -0.408 -0.3 -0.813 -0.432 -1.215 c -0.132 -0.408 -0.246 -0.807 -0.342 -1.197 z m 6.197 2.398 l 0.396 0 l 0 2.645 l 0.504 0 l 0 0.311 l -0.504 0 l 0 1.1 l -0.373 0 l 0 -1.1 l -1.838 0 l 0 -0.234 c 0.07 -0.187 0.168 -0.399 0.293 -0.633 c 0.129 -0.234 0.274 -0.473 0.434 -0.719 c 0.16 -0.246 0.332 -0.485 0.52 -0.719 c 0.187 -0.238 0.377 -0.455 0.568 -0.65 z m 0.023 0.428 c -0.136 0.14 -0.276 0.301 -0.416 0.484 c -0.14 0.183 -0.276 0.375 -0.404 0.574 c -0.125 0.195 -0.24 0.391 -0.35 0.59 c -0.109 0.199 -0.201 0.389 -0.275 0.568 l 1.445 0 l 0 -2.217 z" style="fill:#ececec;fill-opacity:1"/>
</svg>
